X: 1
T: The Pleasures of Providence
T: The Pleasures of the Town
B: Hendrickson's "John Griffiths Dancing Master."
R: jig
Z: 2004 John Chambers <jc@trillian.mit.edu>
M: 6/8
L: 1/8
Q: 3/8=104
K: F
C2 \
|:"F"FAc FAc | FAc cBA | "Bb"BcB "F"ABA | "G7"GAF "C7"EDC \
| "F"FAc FAc | FAc cBA | "Bb"BcB "F"ABA | "C7"GFG  "F"F3 :|
|:"F"faf "C7"cde | "F"faf "C7"cde |  "F"faf "Bb"gfe | "C7"dcB "F"A3 \
| "F"faf "C7"cde | "F"faf     cAF | "Bb"BcB  "F"AcA | "C7"GFG "F"F3 :|
